X:8
T:Oh Callar Spirlings (variation 7)
C:Domenico Corri
S:Jack Campin <abc:purr.demon.co.uk> abcusers 2004-12-6
V:1
V:2
M:3/4
L:1/16
Q:1/4=80
K:D Minor
[V:1] "^P."A2|d^cdf  dcdf  e2c2 |"^F."e/d/^cde "^P."fefa        gfed    |
[V:2]      z2|DAFA   DAFA  EAGA |     DAFA          FAFA       =B,GDG   |
%
[V:1]         c=Bce  cBce  d2B2 |     d/c/=Bcd "^P."edef        ged*c   |
[V:2]         CGEG   CGEG  DGFG |     CGEG          CGEG       ^CAEA    |
%
[V:1]         d^cdf  dcdf  edec |     e/d/^cde      g/f/efg     a=b^c'd'|
[V:2]         DAFA   DAFA  EAGA |     DAFA          DAFA        G,DAD   |
%
[V:1]         bd'bg  f2a2  agfe |     ed^cd         d2d/e/d/^c/ d2     ||
[V:2]         G,EB,E A,FDF A,GEG|     DAFA          DAFA        D2     ||
